X: 2
T: The Cook In The Kitchen
R: jig
M: 6/8
L: 1/8
K: Dmaj
|:dAd ded|cAB =c3|dAd dcd|eaa ged|dAd ded|cAB =c2a|ged cde|1 fdd d3:|2 fdd d2e|||:f2f fed|e2e e3|Add dcd|eaa ged|f2f fed|e2e e2a|ged cde|fdd d3:||:A2B c2d|e2d cBA|GED CDE|FDD GEE|A2B c2d|e2d cBA|GED CDE|FDD D3:|


Tune 808	Setting 28669

